!!!OTL: Die Koenigskinder.
!!!OTL-incipit: Es warb ein schoner Juengling
!!!ARE: Europa, Mitteleuropa, Deutschland
!!!YOR: 1, S. 197
!!    1540 gedruckt in Nuernberg
!!!SCT: Q0020
!!!YEM: Copyright 1995, estate of Helmut Schaffrath.
**kern	**text
*ICvox	*
*M6/4	*
*k[b-]	*
{4g	1._Es
=1:	=1:
2g	warb
4b-	ein
2a	ſchö-
4g	-ner
=2:	=2:
4.a	jüng-
8b-	.
4cc	.
2dd}	-ling
{4dd	v-
=3:	=3:
2cc	-ber
4a	ein
4b-	brai-
2g	-ten
=4:	=4:
2.f	ſee
4r	.
4r}	.
{4f	vmb
=5:	=5:
2a	ei-
4b-	-nes
2cc	Köni-
4b-	-ges
=6:	=6:
4.g	toch-
8a	.
4b-	.
2a}	-ter,
{4g	nach
=7:	=7:
4f	leid
2d	ge-
2g	-ſchach
4f#i	jm
=8:	=8:
2.g;	wee.
2ryy}	.
==	==
!!!AGN: Ballade, Liebe, Trennung, Tod
!! Kleinere Melodievariante aus anderer Quelle abgedruckt.
!!!ONB: ESAC (Essen Associative Code) Database: BALLADE
!!!AMT: compound duple
!!!AIN: vox
!!!EED: Helmut Schaffrath
!!!EEV: 1.0
!!@@COMMENT:"Forſter 2 (1540) Nr. 49."
!!@@END:
!!!RDF**kern: i = editorial accidental
!!!source: Deutsche Volkslieder mit ihren Melodien. Balladen. Herausgegeben vom Deutschen Volksliedarchiv. Erster Band Balladen. Berlin und Leipzig 1935.
!!!page: 197
!!!ENC: Anna Maria Matuszewska
!!!EEV: 2025/02/14
*-	*-
